icons/cloud/cloud-sun.svg

<svg width="14" height="14" viewBox="0 0 14 14" fill="none"
    xmlns="http://www.w3.org/2000/svg">
    <path d="M4.63702 4.65503C5.36037 3.93185 6.51761 3.91667 7.26202 4.59741C7.01838 4.72817 6.78377 4.88297 6.56085 5.06128C6.50479 5.10613 6.45042 5.15278 6.39679 5.19995C6.05774 5.02402 5.6294 5.07686 5.34406 5.36206C5.00209 5.70402 4.99343 6.25235 5.31573 6.6062C5.25225 6.73384 5.19332 6.86375 5.14191 6.99683H4.73761C4.61621 6.99683 4.49561 7.00398 4.37628 7.01636C3.91011 6.28115 3.99579 5.29627 4.63702 4.65503Z" fill="green"/>
    <path d="M6 3V1M8.12132 3.87868L9.53553 2.46447M3 6H1M3.87868 3.87868L2.46447 2.46446" stroke="green" stroke-linecap="round" stroke-linejoin="round"/>
    <path d="M6.33333 9.49677V8.65483C6.33333 7.71218 6.76183 6.82063 7.49791 6.23176V6.23176C8.73259 5.24403 10.5125 5.34261 11.6305 6.46065L11.9642 6.79431C12.9809 7.811 13.2329 9.3642 12.5899 10.6502V10.6502C12.0241 11.7819 10.8674 12.4968 9.60217 12.4968H7.66666L4.73653 12.4968C4.06811 12.4968 3.4439 12.1628 3.07301 11.6067C2.6251 10.9352 2.62508 10.0599 3.07271 9.38812C3.44368 8.8314 4.06853 8.49677 4.73753 8.49677H6.33333" stroke="red" stroke-linecap="round" stroke-linejoin="round"/>
</svg>

<svg xmlns="http://www.w3.org/2000/svg" width="14" height="14" fill="none" viewBox="0 0 14 14"><path fill="green" d="M4.637 4.655a1.9 1.9 0 0 1 2.625-.058 4.6 4.6 0 0 0-.865.603.902.902 0 0 0-1.081 1.406 5 5 0 0 0-.174.39h-.404q-.182.001-.362.02a1.9 1.9 0 0 1 .261-2.361"/><path stroke="green" stroke-linecap="round" stroke-linejoin="round" d="M6 3V1m2.121 2.879 1.415-1.415M3 6H1m2.879-2.121L2.464 2.464"/><path stroke="red" stroke-linecap="round" stroke-linejoin="round" d="M6.333 9.497v-.842c0-.943.429-1.834 1.165-2.423v0a3.103 3.103 0 0 1 4.132.229l.334.333a3.34 3.34 0 0 1 .626 3.856v0a3.34 3.34 0 0 1-2.988 1.847H4.737a2 2 0 1 1 0-4h1.596"/></svg>
